X:1
T:Fisher's Hornpipe
L:1/8
M:4/4
I:linebreak $
K:D
V:1 treble
V:1
 (3ABc |:"D" dAFD "G" GBAG |"D" FDFD "G" GBAG |"D" FDFD"G" GEGE |"D" FDFD"A7" E2 (3ABc |$
 "D" dAFD "G" GBAG |"D" FDFD "G" GBAG | "D" FAdf"A7" edce |1"D" d2 dc d2 (3ABc :|2"D" d2 dc d2 cd |:$
 "A7" ecAc efge |"D" fdAd fgaf |"A7" ecAc efgf |"E7" edcB"A7" A2 A2 |  "G" BGDG BcdB |$
 "D" AFDF ABdA |"A7" BdcB AGFE |1"D" D2 DE D2 cd :|2"D" [DA]2 [FA]2 [DA]2 z2 |]
